icons/Notion-Dark.svg

<svg width="256" height="256" viewBox="0 0 256 256" fill="none" xmlns="http://www.w3.org/2000/svg">
<g clip-path="url(#clip0_33_867)">
<path d="M196 0H60C26.8629 0 0 26.8629 0 60V196C0 229.137 26.8629 256 60 256H196C229.137 256 256 229.137 256 196V60C256 26.8629 229.137 0 196 0Z" fill="#242938"/>
<g clip-path="url(#clip1_33_867)">
<path d="M50.5298 47.548L147.362 40.3958C159.257 39.3755 162.313 40.0633 169.792 45.5005L200.702 67.2758C205.8 71.0208 207.498 72.041 207.498 76.1185V195.544C207.498 203.029 204.78 207.456 195.265 208.132L82.8172 214.943C75.6772 215.28 72.277 214.26 68.5372 209.495L45.775 179.895C41.6923 174.448 40 170.37 40 165.603V59.448C40 53.3283 42.7178 48.2253 50.5298 47.548Z" fill="white"/>
<path fill-rule="evenodd" clip-rule="evenodd" d="M147.362 40.3975L50.5298 47.5498C42.7178 48.2253 40 53.33 40 59.448V165.603C40 170.368 41.6923 174.446 45.775 179.895L68.5372 209.493C72.277 214.258 75.6772 215.28 82.8172 214.941L195.267 208.133C204.775 207.456 207.499 203.029 207.499 195.546V76.1203C207.499 72.2528 205.972 71.138 201.474 67.8375L169.792 45.5005C162.314 40.0633 159.257 39.3755 147.362 40.3958V40.3975ZM85.36 74.1655C76.1777 74.7833 74.0952 74.9233 68.8803 70.683L55.6222 60.1375C54.2747 58.7725 54.952 57.0698 58.347 56.7303L151.435 49.928C159.252 49.2455 163.323 51.9703 166.38 54.3503L182.345 65.9178C183.027 66.2625 184.725 68.2978 182.683 68.2978L86.55 74.085L85.36 74.1655ZM74.6553 194.525V93.1425C74.6553 88.715 76.015 86.6728 80.0855 86.3298L190.5 79.8653C194.245 79.5275 195.937 81.9075 195.937 86.328V187.035C195.937 191.463 195.255 195.208 189.142 195.546L83.4823 201.671C77.3695 202.008 74.657 199.973 74.657 194.525H74.6553ZM178.955 98.578C179.633 101.641 178.955 104.703 175.893 105.053L170.8 106.063V180.916C166.378 183.296 162.307 184.655 158.906 184.655C153.468 184.655 152.11 182.952 148.038 177.853L114.736 125.458V176.15L125.271 178.536C125.271 178.536 125.271 184.661 116.771 184.661L93.3382 186.02C92.6558 184.655 93.3382 181.255 95.713 180.578L101.833 178.88V111.855L93.34 111.168C92.6575 108.105 94.355 103.683 99.115 103.34L124.257 101.648L158.907 154.72V107.767L150.075 106.752C149.393 103.002 152.11 100.277 155.505 99.9448L178.955 98.578Z" fill="black"/>
</g>
</g>
<defs>
<clipPath id="clip0_33_867">
<rect width="256" height="256" fill="white"/>
</clipPath>
<clipPath id="clip1_33_867">
<rect width="175" height="175" fill="white" transform="translate(40 40)"/>
</clipPath>
</defs>
</svg>

<svg xmlns="http://www.w3.org/2000/svg" width="256" height="256" fill="none" viewBox="0 0 256 256"><g clip-path="url(#a)"><path fill="#242938" d="M196 0H60A60 60 0 0 0 0 60v136a60 60 0 0 0 60 60h136a60 60 0 0 0 60-60V60a60 60 0 0 0-60-60"/><g clip-path="url(#b)"><path fill="#fff" d="m50.53 47.55 96.83-7.15c11.9-1.02 14.95-.34 22.43 5.1l30.91 21.78c5.1 3.74 6.8 4.76 6.8 8.84v119.42c0 7.49-2.72 11.92-12.24 12.6l-112.44 6.8c-7.14.34-10.54-.68-14.28-5.44l-22.77-29.6c-4.08-5.45-5.77-9.53-5.77-14.3V59.45c0-6.12 2.72-11.22 10.53-11.9"/><path fill="#000" fill-rule="evenodd" d="m147.36 40.4-96.83 7.15C42.72 48.23 40 53.33 40 59.45V165.6c0 4.77 1.7 8.85 5.77 14.3l22.77 29.6c3.74 4.76 7.14 5.78 14.28 5.44l112.45-6.8c9.5-.68 12.23-5.11 12.23-12.6V76.13c0-3.87-1.53-4.98-6.03-8.28L169.8 45.5c-7.48-5.44-10.53-6.12-22.43-5.1m-62 33.77c-9.18.61-11.26.75-16.48-3.49L55.62 60.14c-1.35-1.37-.67-3.07 2.73-3.41l93.09-6.8c7.81-.68 11.88 2.04 14.94 4.42l15.97 11.57c.68.34 2.38 2.38.33 2.38l-96.13 5.78zm-10.7 120.36V93.14c0-4.42 1.36-6.47 5.43-6.81l110.41-6.46c3.75-.34 5.44 2.04 5.44 6.46v100.7c0 4.43-.69 8.18-6.8 8.52l-105.66 6.12c-6.11.34-8.82-1.7-8.82-7.14m104.3-95.95c.67 3.06 0 6.12-3.07 6.47l-5.09 1.01v74.86c-4.42 2.38-8.5 3.74-11.9 3.74-5.43 0-6.79-1.7-10.86-6.8l-33.3-52.4v50.69l10.53 2.39s0 6.12-8.5 6.12l-23.43 1.36c-.68-1.37 0-4.77 2.37-5.44l6.12-1.7v-67.02l-8.49-.7c-.68-3.05 1.02-7.48 5.77-7.82l25.15-1.7 34.65 53.08v-46.95l-8.84-1.02c-.68-3.75 2.04-6.47 5.44-6.8z" clip-rule="evenodd"/></g></g><defs><clipPath id="a"><path fill="#fff" d="M0 0h256v256H0z"/></clipPath><clipPath id="b"><path fill="#fff" d="M40 40h175v175H40z"/></clipPath></defs></svg>
